!!!OTL: BEI EINEM LANDSMANN BIN ICH GERN
!!!ARE: Europa, Mitteleuropa, Deutschland
!!!SCT: B0536
!!!YEM: Copyright 1995, estate of Helmut Schaffrath.
**kern
*ICvox
*Ivox
*M3/4
*k[f#c#]
*D:
{8a
8g
=1
8f#
8a
4.dd
8a
=2
8cc#
8b
4.e}
{16e
16cc#
=3
4.cc#
8b
8a
8g
=4
4f#
4r}
{8a
8g
=5
8f#
8a
4.dd
8a
=6
8cc#
8b
4.e}
{16e
16cc#
=7
4.cc#
16b
16a
8g
8c#
=8
4d
4r}
{8f#
8e
=9
8.e
16e
4.g#
8e
=10
8a
8a
4.cc#}
{16a
16cc#
=11
4.ee
8b
8dd
8cc#
=12
2a}
{8a
8g
=13
8f#
8a
4.dd
8a
=14
8cc#
8b
4.e}
{16e
16cc#
=15
4.cc#
8b
8a
8g
=16
4f#
4r}
{8a
8g
=17
8f#
8a
4.dd
8a
=18
8cc#
8b
4.e}
{16e
16cc#
=19
4.cc#
16b
16a
8g
8c#
=20
4d
4r}
==
!!!AGN: Wander -, Heimat - Lied
!!!ONB: ESAC (Essen Associative Code) Database: BOEHME
!!!AMT: simple triple
!!!AIN: vox
!!!EED: Helmut Schaffrath
!!!EEV: 1.0
*-
